frontend/public/svg/emojis/sad-emoji.svg

<svg width="160" height="155" viewBox="0 0 160 155" fill="none" xmlns="http://www.w3.org/2000/svg">
<path d="M87.538 92.1827C97.9431 92.1645 106.519 94.2223 114.589 98.2723C116.331 99.0502 117.883 100.197 119.138 101.632C119.933 102.664 120.369 104.903 119.77 105.838C119.061 106.944 117.043 107.783 115.639 107.724C113.96 107.656 112.218 106.694 110.692 105.799C98.8416 98.8465 86.2305 98.0448 73.1575 101.083C66.1964 102.7 60.7311 106.722 56.2288 112.153C55.7263 112.759 55.2808 113.415 54.7797 114.021C53.7294 115.286 52.7144 117.294 50.7784 115.975C48.8824 114.685 49.353 112.551 50.4074 110.829C54.8386 103.583 60.9255 98.3014 68.9991 95.4147C74.9745 93.3853 81.2285 92.2951 87.538 92.1827Z" fill="black"/>
<path d="M54.0803 78.0532C49.5096 77.8419 45.3919 76.3223 42.2702 72.6393C40.9518 71.0819 39.9117 69.2014 41.677 67.5533C43.3916 65.9518 44.9043 67.2879 46.2816 68.6632C52.0293 74.3986 59.4542 72.6177 62.1736 64.9002C62.5481 63.8384 62.8954 62.7651 63.3248 61.7271C64.0019 60.0945 65.3176 58.879 66.9746 59.6333C67.5691 59.9691 68.0816 60.4329 68.475 60.9909C68.8685 61.5489 69.1331 62.1873 69.2498 62.86C69.4694 65.0038 69.1479 67.1683 68.3148 69.1557C67.4816 71.1431 66.1634 72.8899 64.4806 74.2361C61.5181 76.7328 58.0301 77.8277 54.0803 78.0532Z" fill="black"/>
<path d="M105.686 73.2745C103.031 73.029 100.473 72.1462 98.2312 70.701C95.9893 69.2558 94.1294 67.2912 92.8092 64.9735C91.9507 63.3999 91.5519 61.6166 91.658 59.8271C91.7061 58.825 92.9818 57.254 93.8994 57.1037C94.7566 56.9601 96.4048 58.1464 96.7671 59.1019C97.7225 61.6283 98.9665 63.733 101.334 65.1428C105.489 67.6171 108.169 66.9033 110.372 62.6372C112.149 59.1973 113.868 58.0422 115.853 58.9536C117.709 59.8061 118.149 62.2297 117.064 65.6323C115.548 70.3954 111.681 73.2393 105.686 73.2745Z" fill="black"/>
<path d="M41.2736 52.0625C39.2472 51.067 37.2845 49.9469 35.3967 48.7087C34.8874 48.3396 34.9017 46.8018 35.1895 45.9797C35.3249 45.6005 36.8146 45.3133 37.4769 45.5612C44.0702 48.0382 48.9443 44.7885 53.5347 40.7852C54.8714 39.6192 55.8025 37.9974 56.9746 36.6316C58.1258 35.2915 59.5126 34.0584 61.3084 35.2773C63.0656 36.4725 62.5476 38.3143 61.7621 39.8406C58.5835 46.0162 53.0858 49.0581 46.6312 50.6832C45.002 51.0936 43.3132 51.2573 41.6494 51.535C41.5235 51.7106 41.3982 51.8864 41.2736 52.0625Z" fill="black"/>
<path d="M111.841 48.0808C105.864 47.6597 100.966 45.7027 97.2146 41.373C96.3542 40.4872 95.7235 39.4044 95.3775 38.2189C95.1933 37.3169 95.5935 35.7925 96.2619 35.3612C96.9302 34.9298 98.7267 35.1486 99.2 35.7424C103.127 40.6707 108.366 41.8768 114.283 41.6337C116.029 41.562 117.843 42.0753 117.963 44.2638C118.074 46.2817 116.616 47.2432 114.824 47.6427C113.733 47.8865 112.609 47.9725 111.841 48.0808Z" fill="black"/>
<path d="M3.29432 55.9748C-3.71551 83.5259 2.42283 107.831 21.5516 128.223C22.0499 128.75 22.5571 129.277 23.065 129.785C33.34 140.06 46.1388 146.404 56.2804 150.819C60.6324 152.719 82.9668 155.028 89.0089 154.128C124.92 148.765 148.553 128.511 156.783 94.625C158.355 87.9873 159.138 81.1873 159.115 74.3661C159.154 58.2974 152.388 39.6163 138.435 25.6251C136.999 24.4373 135.568 23.2069 134.183 22.0145C131.181 19.4339 128.078 16.762 124.832 14.4834C100.034 -2.97008 74.2695 -3.06774 48.2549 6.1875C24.701 14.5618 9.57486 31.3158 3.29432 55.9748ZM48.3557 14.4373C71.181 4.95246 94.0828 3.27855 116.419 17.4844C120.504 20.0847 131.392 28.8849 133.106 30.2067L133.216 30.2879L133.307 30.3889C142.021 39.6299 152 56.5268 151.78 73.8963C151.707 81.3232 150.702 88.7115 148.787 95.8878C143.113 116.511 129.548 131.541 107.317 141.821C84.7172 152.642 52.3062 141.702 43.6828 136.01C34.1511 129.493 25.8111 121.386 19.0272 112.043C8.38782 96.9802 6.0002 75.3276 11.714 55.5339C14.3899 46.3946 19.0661 37.9653 25.4035 30.8571C31.7409 23.7489 39.5807 18.1401 48.3544 14.4373H48.3557Z" fill="black"/>
</svg>

<svg xmlns="http://www.w3.org/2000/svg" width="160" height="155" fill="none" viewBox="0 0 160 155"><path fill="#000" d="M87.538 92.183c10.405-.019 18.981 2.04 27.051 6.09a13.2 13.2 0 0 1 4.549 3.359c.795 1.032 1.231 3.271.632 4.206-.709 1.106-2.727 1.945-4.131 1.886-1.679-.068-3.421-1.03-4.947-1.925-11.85-6.953-24.461-7.754-37.534-4.716-6.962 1.617-12.427 5.639-16.93 11.07-.502.606-.947 1.262-1.448 1.868-1.05 1.265-2.066 3.273-4.002 1.954-1.896-1.29-1.425-3.424-.37-5.146 4.43-7.246 10.517-12.528 18.591-15.414a61 61 0 0 1 18.539-3.232M54.08 78.053c-4.57-.211-8.688-1.73-11.81-5.414-1.318-1.557-2.358-3.438-.593-5.086 1.715-1.601 3.227-.265 4.605 1.11 5.747 5.736 13.172 3.955 15.892-3.763.374-1.062.721-2.135 1.15-3.173.678-1.633 1.994-2.848 3.65-2.094a4.61 4.61 0 0 1 2.276 3.227 12.89 12.89 0 0 1-4.77 11.376c-2.962 2.497-6.45 3.592-10.4 3.817m51.606-4.778a16.58 16.58 0 0 1-12.877-8.302 9.56 9.56 0 0 1-1.151-5.146c.048-1.002 1.324-2.573 2.241-2.723.858-.144 2.506 1.042 2.868 1.998.956 2.526 2.2 4.631 4.567 6.04 4.155 2.475 6.835 1.761 9.038-2.505 1.777-3.44 3.496-4.595 5.481-3.683 1.856.852 2.296 3.276 1.211 6.678-1.516 4.763-5.383 7.607-11.378 7.642M41.274 52.063a55 55 0 0 1-5.877-3.354c-.51-.37-.495-1.907-.207-2.73.135-.379 1.625-.666 2.287-.418 6.593 2.477 11.467-.773 16.058-4.776 1.336-1.166 2.268-2.788 3.44-4.153 1.15-1.34 2.538-2.574 4.333-1.355 1.758 1.195 1.24 3.037.454 4.564-3.178 6.175-8.676 9.217-15.13 10.842-1.63.41-3.319.574-4.983.852zm70.567-3.983c-5.977-.42-10.875-2.377-14.626-6.707a7.6 7.6 0 0 1-1.838-3.154c-.184-.902.217-2.427.885-2.858s2.465-.212 2.938.381c3.927 4.929 9.166 6.135 15.083 5.892 1.746-.072 3.56.441 3.68 2.63.111 2.018-1.347 2.98-3.139 3.379-1.091.243-2.215.33-2.983.438"/><path fill="#000" d="M3.294 55.975c-7.01 27.55-.871 51.856 18.258 72.248a78 78 0 0 0 1.513 1.562c10.275 10.275 23.074 16.619 33.215 21.034 4.352 1.9 26.687 4.209 32.729 3.309 35.911-5.363 59.544-25.617 67.774-59.503a86.6 86.6 0 0 0 2.332-20.259c.039-16.069-6.727-34.75-20.68-48.74a284 284 0 0 1-4.252-3.611c-3.002-2.581-6.105-5.253-9.351-7.532C100.034-2.97 74.27-3.067 48.255 6.188 24.7 14.562 9.575 31.316 3.295 55.975m45.062-41.538C71.18 4.952 94.083 3.28 116.419 17.484c4.085 2.6 14.973 11.4 16.687 12.723l.11.08.091.102c8.714 9.24 18.693 26.138 18.473 43.507a88.7 88.7 0 0 1-2.993 21.992c-5.674 20.623-19.239 35.653-41.47 45.933-22.6 10.821-55.01-.119-63.634-5.811a100.7 100.7 0 0 1-24.656-23.967C8.387 96.98 6 75.328 11.714 55.533a64.18 64.18 0 0 1 36.64-41.096z"/></svg>
